web/src/lib/icons/trash-open.svg

<svg xmlns="http://www.w3.org/2000/svg" viewBox="0 0 635 635"><g fill="none" stroke-width="2"><path stroke="#fee383" d="M431.17 123.95q-6.57-3.81-14.11-5.93-8.99-2.53-10.83-3.16-6.1-2.1-11.79-3.9m-101.5-32.21-38.99-12.72" vector-effect="non-scaling-stroke"/><path stroke="#f69505" d="M213.14 553.94c9.44-.48 17.28-8.01 16.85-17.83q-3.56-82.57-8.4-186.66-.62-13.32-1.07-14.86c-2.5-8.48-10.28-14.01-19.32-13.55-9.04.47-16.21 6.76-17.83 15.46q-.29 1.57.45 14.88 5.83 104.05 10.73 186.55c.58 9.81 9.14 16.49 18.59 16.01m110.18-215.57a17.19 17.19 0 0 0-17.19-17.19h-.84a17.19 17.19 0 0 0-17.19 17.19v198.3a17.19 17.19 0 0 0 17.19 17.19h.84a17.19 17.19 0 0 0 17.19-17.19v-198.3m74.4 215.56c9.44.51 18.04-6.14 18.65-15.95q5.22-82.48 11.44-186.5.79-13.31.51-14.88c-1.58-8.7-8.74-15.03-17.77-15.53-9.04-.49-16.85 5.01-19.37 13.48q-.46 1.53-1.13 14.85-5.24 104.07-9.11 186.63c-.46 9.82 7.34 17.38 16.78 17.9" vector-effect="non-scaling-stroke"/></g><path fill="#fefefe" d="M431.17 123.95q-6.57-3.81-14.11-5.93-8.99-2.53-10.83-3.16-6.1-2.1-11.79-3.9.74-5.97 2.55-11.54 2-6.17 2.1-7.84c.55-9.07-5.59-16.2-14.05-18.89q-49.42-15.71-60.23-19.36-8.03-2.72-11.95-2.39c-13.59 1.12-15.69 11.91-19.69 23.17q-.54 1.54-.23 4.64l-38.99-12.72q.4-4.29.88-6.17 3.05-11.97 6.1-19.67c8.72-22.03 28.06-34.28 51.91-32.65q4.87.33 14.19 3.64 4.63 1.64 15.61 5.14 35.91 11.42 60.03 19.2 13.41 4.32 18.26 7.58c20.61 13.91 24.69 37.28 17.33 59.93q-4.77 14.66-7.09 20.92"/><path fill="#fec808" d="m253.95 66.03 38.99 12.72q45.21 14.8 90.58 29.46 6.17 2 10.92 2.75 5.69 1.8 11.79 3.9 1.84.63 10.83 3.16 7.54 2.12 14.11 5.93 55.97 18.5 112.42 36.26c10.76 3.38 17.22 11.87 17.98 22.83q.27 3.82-1.94 10.53-1.63 4.99-7.89 25.23-2.14 6.93-4.7 10.24-7.93 10.28-22.33 8.57-1.63-.19-7.9-2.59-4.75-1.83-7.84-2.69-13.68-3.84-22.58-7.04c-8.6-3.09-15.84-4.82-24.15-7.82q-4.19-1.52-9.62-3.25-38.43-12.24-58.18-18.83c-12.2-4.07-20.94-6.47-31.8-10.33q-6.31-2.24-20.92-6.75-11.01-3.4-20.98-6.63-99.51-32.15-134.21-43.45c-26.54-8.65-53.25-17-82.1-26.36q-1.42-.45-4.61-2.74c-5.34-3.81-8.99-12.96-7.99-19.48q.34-2.17 1-4.25 2.29-7.15 9.8-28.85 2.92-8.44 5.34-11.04c6.36-6.82 16.09-10.37 25.32-7.47q50.04 15.73 84.56 26.93 15.24 4.95 30.29 9.89 2.86.94 5.81 1.17m238.88 490.86q-1.53 14.6-3.25 31.95-.91 9.25-7.62 19.14-9.99 14.74-26.64 19.11-5.96 1.56-22.24 1.52-77.22-.22-265.84-.09-10.9.01-21.44-5.3-6.83-3.43-11.14-7.89c-6.99-7.23-12.49-16.51-13.56-26.36q-.49-4.49-8.28-82.98-2.57-25.94-7.84-83.01c-4.46-48.33-9.25-94.29-14.77-148.71q-1.13-11.13-.02-16.51c2.51-12.16 10.66-22.08 22.97-26.17q4.13-1.38 12.95-1.44 8.68-.06 13.14-.06 181.02.09 337.75.01c5.79-.01 12.93-.8 18 .18 8.94 1.72 19.17 8.4 23.23 16.46q2.56 5.09 4.17 12.61.81 3.78-.25 13.27-4.36 38.86-7.9 74.13-13.02 129.9-21.42 210.14m-279.69-2.95c9.44-.48 17.28-8.01 16.85-17.83q-3.56-82.57-8.4-186.66-.62-13.32-1.07-14.86c-2.5-8.48-10.28-14.01-19.32-13.55-9.04.47-16.21 6.76-17.83 15.46q-.29 1.57.45 14.88 5.83 104.05 10.73 186.55c.58 9.81 9.14 16.49 18.59 16.01m110.18-215.57a17.19 17.19 0 0 0-17.19-17.19h-.84a17.19 17.19 0 0 0-17.19 17.19v198.3a17.19 17.19 0 0 0 17.19 17.19h.84a17.19 17.19 0 0 0 17.19-17.19zm74.4 215.56c9.44.51 18.04-6.14 18.65-15.95q5.22-82.48 11.44-186.5.79-13.31.51-14.88c-1.58-8.7-8.74-15.03-17.77-15.53-9.04-.49-16.85 5.01-19.37 13.48q-.46 1.53-1.13 14.85-5.24 104.07-9.11 186.63c-.46 9.82 7.34 17.38 16.78 17.9"/><path fill="#ee6202" d="M213.14 553.94c-9.45.48-18.01-6.2-18.59-16.01q-4.9-82.5-10.73-186.55-.74-13.31-.45-14.88c1.62-8.7 8.79-14.99 17.83-15.46 9.04-.46 16.82 5.07 19.32 13.55q.45 1.54 1.07 14.86 4.84 104.09 8.4 186.66c.43 9.82-7.41 17.35-16.85 17.83"/><rect width="35.22" height="232.68" x="288.1" y="321.18" fill="#ee6202" rx="17.19"/><path fill="#ee6202" d="M410.55 321.07c9.03.5 16.19 6.83 17.77 15.53q.28 1.57-.51 14.88-6.22 104.02-11.44 186.5c-.61 9.81-9.21 16.46-18.65 15.95-9.44-.52-17.24-8.08-16.78-17.9q3.87-82.56 9.11-186.63.67-13.32 1.13-14.85c2.52-8.47 10.33-13.97 19.37-13.48"/></svg>

<?xml version="1.0" encoding="UTF-8" standalone="no"?>
<!DOCTYPE svg PUBLIC "-//W3C//DTD SVG 1.1//EN" "http://www.w3.org/Graphics/SVG/1.1/DTD/svg11.dtd">
<svg xmlns="http://www.w3.org/2000/svg" version="1.1" viewBox="0.00 0.00 635.00 635.00">
<g stroke-width="2.00" fill="none" stroke-linecap="butt">
<path stroke="#fee383" vector-effect="non-scaling-stroke" d="
  M 431.17 123.95
  Q 424.60 120.14 417.06 118.02
  Q 408.07 115.49 406.23 114.86
  Q 400.13 112.76 394.44 110.96"
/>
<path stroke="#fee383" vector-effect="non-scaling-stroke" d="
  M 292.94 78.75
  L 253.95 66.03"
/>
<path stroke="#f69505" vector-effect="non-scaling-stroke" d="
  M 213.14 553.94
  C 222.58 553.46 230.42 545.93 229.99 536.11
  Q 226.43 453.54 221.59 349.45
  Q 220.97 336.13 220.52 334.59
  C 218.02 326.11 210.24 320.58 201.20 321.04
  C 192.16 321.51 184.99 327.80 183.37 336.50
  Q 183.08 338.07 183.82 351.38
  Q 189.65 455.43 194.55 537.93
  C 195.13 547.74 203.69 554.42 213.14 553.94"
/>
<path stroke="#f69505" vector-effect="non-scaling-stroke" d="
  M 323.32 338.37
  A 17.19 17.19 0.0 0 0 306.13 321.18
  L 305.29 321.18
  A 17.19 17.19 0.0 0 0 288.10 338.37
  L 288.10 536.67
  A 17.19 17.19 0.0 0 0 305.29 553.86
  L 306.13 553.86
  A 17.19 17.19 0.0 0 0 323.32 536.67
  L 323.32 338.37"
/>
<path stroke="#f69505" vector-effect="non-scaling-stroke" d="
  M 397.72 553.93
  C 407.16 554.44 415.76 547.79 416.37 537.98
  Q 421.59 455.50 427.81 351.48
  Q 428.60 338.17 428.32 336.60
  C 426.74 327.90 419.58 321.57 410.55 321.07
  C 401.51 320.58 393.70 326.08 391.18 334.55
  Q 390.72 336.08 390.05 349.40
  Q 384.81 453.47 380.94 536.03
  C 380.48 545.85 388.28 553.41 397.72 553.93"
/>
</g>
<path fill="#fefefe" d="
  M 431.17 123.95
  Q 424.60 120.14 417.06 118.02
  Q 408.07 115.49 406.23 114.86
  Q 400.13 112.76 394.44 110.96
  Q 395.18 104.99 396.99 99.42
  Q 398.99 93.25 399.09 91.58
  C 399.64 82.51 393.50 75.38 385.04 72.69
  Q 335.62 56.98 324.81 53.33
  Q 316.78 50.61 312.86 50.94
  C 299.27 52.06 297.17 62.85 293.17 74.11
  Q 292.63 75.65 292.94 78.75
  L 253.95 66.03
  Q 254.35 61.74 254.83 59.86
  Q 257.88 47.89 260.93 40.19
  C 269.65 18.16 288.99 5.91 312.84 7.54
  Q 317.71 7.87 327.03 11.18
  Q 331.66 12.82 342.64 16.32
  Q 378.55 27.74 402.67 35.52
  Q 416.08 39.84 420.93 43.10
  C 441.54 57.01 445.62 80.38 438.26 103.03
  Q 433.49 117.69 431.17 123.95
  Z"
/>
<path fill="#fec808" d="
  M 253.95 66.03
  L 292.94 78.75
  Q 338.15 93.55 383.52 108.21
  Q 389.69 110.21 394.44 110.96
  Q 400.13 112.76 406.23 114.86
  Q 408.07 115.49 417.06 118.02
  Q 424.60 120.14 431.17 123.95
  Q 487.14 142.45 543.59 160.21
  C 554.35 163.59 560.81 172.08 561.57 183.04
  Q 561.84 186.86 559.63 193.57
  Q 558.00 198.56 551.74 218.80
  Q 549.60 225.73 547.04 229.04
  Q 539.11 239.32 524.71 237.61
  Q 523.08 237.42 516.81 235.02
  Q 512.06 233.19 508.97 232.33
  Q 495.29 228.49 486.39 225.29
  C 477.79 222.20 470.55 220.47 462.24 217.47
  Q 458.05 215.95 452.62 214.22
  Q 414.19 201.98 394.44 195.39
  C 382.24 191.32 373.50 188.92 362.64 185.06
  Q 356.33 182.82 341.72 178.31
  Q 330.71 174.91 320.74 171.68
  Q 221.23 139.53 186.53 128.23
  C 159.99 119.58 133.28 111.23 104.43 101.87
  Q 103.01 101.42 99.82 99.13
  C 94.48 95.32 90.83 86.17 91.83 79.65
  Q 92.17 77.48 92.83 75.40
  Q 95.12 68.25 102.63 46.55
  Q 105.55 38.11 107.97 35.51
  C 114.33 28.69 124.06 25.14 133.29 28.04
  Q 183.33 43.77 217.85 54.97
  Q 233.09 59.92 248.14 64.86
  Q 251.00 65.80 253.95 66.03
  Z"
/>
<path fill="#fec808" d="
  M 492.83 556.89
  Q 491.30 571.49 489.58 588.84
  Q 488.67 598.09 481.96 607.98
  Q 471.97 622.72 455.32 627.09
  Q 449.36 628.65 433.08 628.61
  Q 355.86 628.39 167.24 628.52
  Q 156.34 628.53 145.80 623.22
  Q 138.97 619.79 134.66 615.33
  C 127.67 608.10 122.17 598.82 121.10 588.97
  Q 120.61 584.48 112.82 505.99
  Q 110.25 480.05 104.98 422.98
  C 100.52 374.65 95.73 328.69 90.21 274.27
  Q 89.08 263.14 90.19 257.76
  C 92.70 245.60 100.85 235.68 113.16 231.59
  Q 117.29 230.21 126.11 230.15
  Q 134.79 230.09 139.25 230.09
  Q 320.27 230.18 477.00 230.10
  C 482.79 230.09 489.93 229.30 495.00 230.28
  C 503.94 232.00 514.17 238.68 518.23 246.74
  Q 520.79 251.83 522.40 259.35
  Q 523.21 263.13 522.15 272.62
  Q 517.79 311.48 514.25 346.75
  Q 501.23 476.65 492.83 556.89
  Z
  M 213.14 553.94
  C 222.58 553.46 230.42 545.93 229.99 536.11
  Q 226.43 453.54 221.59 349.45
  Q 220.97 336.13 220.52 334.59
  C 218.02 326.11 210.24 320.58 201.20 321.04
  C 192.16 321.51 184.99 327.80 183.37 336.50
  Q 183.08 338.07 183.82 351.38
  Q 189.65 455.43 194.55 537.93
  C 195.13 547.74 203.69 554.42 213.14 553.94
  Z
  M 323.32 338.37
  A 17.19 17.19 0.0 0 0 306.13 321.18
  L 305.29 321.18
  A 17.19 17.19 0.0 0 0 288.10 338.37
  L 288.10 536.67
  A 17.19 17.19 0.0 0 0 305.29 553.86
  L 306.13 553.86
  A 17.19 17.19 0.0 0 0 323.32 536.67
  L 323.32 338.37
  Z
  M 397.72 553.93
  C 407.16 554.44 415.76 547.79 416.37 537.98
  Q 421.59 455.50 427.81 351.48
  Q 428.60 338.17 428.32 336.60
  C 426.74 327.90 419.58 321.57 410.55 321.07
  C 401.51 320.58 393.70 326.08 391.18 334.55
  Q 390.72 336.08 390.05 349.40
  Q 384.81 453.47 380.94 536.03
  C 380.48 545.85 388.28 553.41 397.72 553.93
  Z"
/>
<path fill="#ee6202" d="
  M 213.14 553.94
  C 203.69 554.42 195.13 547.74 194.55 537.93
  Q 189.65 455.43 183.82 351.38
  Q 183.08 338.07 183.37 336.50
  C 184.99 327.80 192.16 321.51 201.20 321.04
  C 210.24 320.58 218.02 326.11 220.52 334.59
  Q 220.97 336.13 221.59 349.45
  Q 226.43 453.54 229.99 536.11
  C 230.42 545.93 222.58 553.46 213.14 553.94
  Z"
/>
<rect fill="#ee6202" x="288.10" y="321.18" width="35.22" height="232.68" rx="17.19"/>
<path fill="#ee6202" d="
  M 410.55 321.07
  C 419.58 321.57 426.74 327.90 428.32 336.60
  Q 428.60 338.17 427.81 351.48
  Q 421.59 455.50 416.37 537.98
  C 415.76 547.79 407.16 554.44 397.72 553.93
  C 388.28 553.41 380.48 545.85 380.94 536.03
  Q 384.81 453.47 390.05 349.40
  Q 390.72 336.08 391.18 334.55
  C 393.70 326.08 401.51 320.58 410.55 321.07
  Z"
/>
</svg>
